resources/svg/archive.svg

<svg viewBox="0 0 24 24"><path fill="none" stroke="currentColor" stroke-width="2" d="M3 23h18V6H3v17zm6-9h6v-4H9v4zM1 6h22V1H1v5z"/></svg>

<svg xmlns="http://www.w3.org/2000/svg" viewBox="0 0 24 24" fill="currentColor"><path fill="none" stroke="currentColor" stroke-width="2" d="M3,23 L21,23 L21,6 L3,6 L3,23 Z M9,14 L15,14 L15,10 L9,10 L9,14 Z M1,6 L23,6 L23,1 L1,1 L1,6 Z"/></svg>
